icons/folder_type_haxelib_opened.svg

<svg xmlns="http://www.w3.org/2000/svg" viewBox="0 0 32 32"><path d="M27.4 5.5h-9.2l-2.1 4.2H4.3v16.8h25.2v-21Zm0 18.7H6.6V11.8h20.8Zm0-14.5h-8.2l1-2.1h7.1v2.1Z" style="fill:#dbab7b"/><path d="M25.7 13.7H.5l3.8 12.8h25.2l-3.8-12.8z" style="fill:#dbab7b"/><path d="M20.5 12.625 12.625 20.5l7.875 7.875 7.875-7.875-7.875-7.875" style="fill:#f68712"/><path d="m10 10 10.5 2.625-7.875 7.875L10 10" style="fill:#fab20b"/><path d="m31 10-2.625 10.5-7.875-7.875L31 10" style="fill:#f47216"/><path d="m31 31-10.5-2.625 7.875-7.875L31 31" style="fill:#f25c19"/><path d="m10 31 2.625-10.5 7.875 7.875L10 31" style="fill:#f89c0e"/><path d="M20.5 12.625 10 10h5.25l5.25 2.625M20.5 12.625 31 10h-5.25l-5.25 2.625" style="fill:#fbc707"/><path d="M20.5 28.375 31 31h-5.25l-5.25-2.625" style="fill:#f68712"/><path d="M20.5 28.375 10 31h5.25l5.25-2.625" style="fill:#f25c19"/><path d="M12.625 20.5 10 31v-5.25l2.625-5.25M12.625 20.5 10 10v5.25l2.625 5.25" style="fill:#fff200"/><path d="M28.375 20.5 31 10v5.25l-2.625 5.25M28.375 20.5 31 31v-5.25l-2.625-5.25" style="fill:#f1471d"/></svg>

<svg xmlns="http://www.w3.org/2000/svg" viewBox="0 0 32 32"><title>folder_type_haxelib_opened</title><path d="M27.4,5.5H18.2L16.1,9.7H4.3V26.5H29.5V5.5Zm0,18.7H6.6V11.8H27.4Zm0-14.5H19.2l1-2.1h7.1V9.7Z" style="fill:#dbab7b"/><polygon points="25.7 13.7 0.5 13.7 4.3 26.5 29.5 26.5 25.7 13.7" style="fill:#dbab7b"/><path d="M20.5,12.625,12.625,20.5,20.5,28.375,28.375,20.5,20.5,12.625" style="fill:#f68712"/><path d="M10,10l10.5,2.625L12.625,20.5,10,10" style="fill:#fab20b"/><path d="M31,10,28.375,20.5,20.5,12.625,31,10" style="fill:#f47216"/><path d="M31,31,20.5,28.375,28.375,20.5,31,31" style="fill:#f25c19"/><path d="M10,31l2.625-10.5L20.5,28.375,10,31" style="fill:#f89c0e"/><path d="M20.5,12.625,10,10h5.25l5.25,2.625" style="fill:#fbc707"/><path d="M20.5,12.625,31,10H25.75L20.5,12.625" style="fill:#fbc707"/><path d="M20.5,28.375,31,31H25.75L20.5,28.375" style="fill:#f68712"/><path d="M20.5,28.375,10,31h5.25l5.25-2.625" style="fill:#f25c19"/><path d="M12.625,20.5,10,31V25.75l2.625-5.25" style="fill:#fff200"/><path d="M12.625,20.5,10,10v5.25l2.625,5.25" style="fill:#fff200"/><path d="M28.375,20.5,31,10v5.25L28.375,20.5" style="fill:#f1471d"/><path d="M28.375,20.5,31,31V25.75L28.375,20.5" style="fill:#f1471d"/></svg>
